X: 1
T: String Quartet in D Minor opus 42 no 1 mvt 2
C: Franz Joseph Haydn
%%abc-version 2.0
%%abcx-abcm2ps-target-version 5.9.1 (29 Sep 2008)
%%abc-creator hum2abc beta
%%abcx-conversion-date 2021/02/14 14:38:26
%%abc-copyright Copyright (c) 1994, 2000 Center for Computer Assisted Research in the Humanities
%%abc-edited-by Frances Bennion
%%abcx-initial-encoding-date 1997/04/15
%%gracespace 0 6 6
%%humdrum-veritas 3156563707
%%humdrum-veritas-data 2419330525
%%linebreak <none>
%%barnumbers 0
L: 1/8
M: 3/4
N: Derived from op42-02.krn
Q: "Menuetto"
%%staves [1 2 3 4]
V: 1
V: 2
V: 3 clef=alto
V: 4 clef=bass
K: D
[V:1]dz cz dz [I:setbarnb2] |
[V:2]Az Gz Fz |
[V:3]Dz Ez Fz |
[V:4]Fz Ez Dz |
[V:1]^de fg ^ga |
[V:2]E2 z4 |
[V:3]A2 z4 |
[V:4]C2 z4 |
[V:1]bz c'z d'z |
[V:2]^gz az bz |
[V:3]Dz Cz B,z |
[V:4]B,z A,z ^G,z |
[V:1]d'c' ba ^ga |
[V:2]a2 z4 |
[V:3][C2E2] z4 |
[V:4]A,2 z4 |
[V:1]b4 =c'b |
[V:2]ag fe ^de |
[V:3]^DE FG AG |
[V:4]z6 |
[V:1]a4 ba |
[V:2]gf ed cd |
[V:3]CD EF GF |
[V:4]z6 |
[V:1]ag fe ^de |
[V:2]B6 |
[V:3]D2 E2 G2 |
[V:4]G,6 |
[V:1]d4 c2 |
[V:2]F4 E2 |
[V:3]A2 A,2 A,2 |
[V:4]A,2 A,,2 A,,2 |
[V:1]az ^gz az |
[V:2]cz Bz cz |
[V:3]z6 |
[V:4]A,6- |
[V:1]b6 |
[V:2]d2 B2 ^G2 |
[V:3]^GA Bc d^d |
[V:4]A,6- |
[V:1]c'z bz c'z |
[V:2]G6 |
[V:3]ez dz ez |
[V:4]A,6 |
[V:1]d'e' f'e' d'c' |
[V:2]F6 |
[V:3]f2 d2 A2 |
[V:4]A,,6- |
[V:1]ba ^gf ed |
[V:2]D4 B,2 |
[V:3]^G6 |
[V:4]A,,6 |
[V:1]c2 z4 |
[V:2]CD EF GA |
[V:3]A2 z4 |
[V:4]A,,B,, C,D, E,F, |
[V:1]z6 |
[V:2]Bc de fg |
[V:3]z6 |
[V:4]G,A, B,C DE |
[V:1]dz cz dz |
[V:2]az Gz Fz |
[V:3]Dz Ez Fz |
[V:4]Fz Ez Dz |
[V:1]^de fg ^ga |
[V:2]E2 z4 |
[V:3]A2 z4 |
[V:4]C2 z4 |
[V:1]bz c'z d'z |
[V:2]^gz az bz |
[V:3]Dz Cz B,z |
[V:4]B,z A,z ^G,z |
[V:1]d'c' ba ^ga |
[V:2]a2 z4 |
[V:3][C2E2] z4 |
[V:4]A,2 z4 |
[V:1]b4 =c'b |
[V:2]ag fe ^de |
[V:3]^DE FG AG |
[V:4]z6 |
[V:1]a4 ba |
[V:2]gf ed cd |
[V:3]CD EF GF |
[V:4]z6 |
[V:1]ag fe dc |
[V:2]B4 G2 |
[V:3]D2 E2 E2 |
[V:4]G,4 A,2 |
[V:1]c6 |
[V:2]G6 |
[V:3]E6 |
[V:4]B,6- |
[V:1]d2 z4 |
[V:2]F2 z4 |
[V:3]D2 z4 |
[V:4]B,2 z4 |
[V:1]z6 |
[V:2]gz fz gz |
[V:3]ez ^dz ez |
[V:4]A,2 z4 |
[V:1]fg ab c'd' |
[V:2]f2 z4 |
[V:3]d2 z4 |
[V:4]D,2 z4 |
[V:1]e'f' g'a' b'c'' |
[V:2]gz ez [GA,]z |
[V:3]ez cz Ez |
[V:4]A,,2 z4 |
[V:1]d''2 z4 |
[V:2][F2A,2] z4 |
[V:3]D2 z4 |
[V:4]D,,2 z4 |
[V:1]a2 a2 a2 |
[V:2]z6 |
[V:3]z6 |
[V:4]z6 |
[V:1]a2 a_b a2 |
[V:2]E2 E2 E2 |
[V:3]C2 C2 C2 |
[V:4]z6 |
[V:1]g2 g2 g2 |
[V:2]E2 E=F E2 |
[V:3]C2 CD C2 |
[V:4]z6 |
[V:1]=f2 z4 |
[V:2]=F2 F2 F2 |
[V:3]D2 D2 D2 |
[V:4]z6 |
[V:1]G2 G2 G2 |
[V:2]=F2 FG F2 |
[V:3]D2 DE D2 |
[V:4]_B,,2 B,,2 B,,2 |
[V:1]G2 GA G2 |
[V:2]E6 |
[V:3]=C6- |
[V:4]_B,,2 B,,=C, B,,2 |
[V:1]=F2 G2 E2 |
[V:2]=F2 D2 _B,2 |
[V:3]C2 D2 G,2 |
[V:4]A,,2 _B,,2 =C,2 |
[V:1]=F2 z4 |
[V:2]A,2 z4 |
[V:3]=F,2 z4 |
[V:4]=F,,2 =F,2 F,,2 |
[V:1]=c'2 c'2 c'2 |
[V:2]z6 |
[V:3]z6 |
[V:4]z6 |
[V:1]=c'2 c'd' c'2 |
[V:2]_B2 B2 B2 |
[V:3]G2 G2 G2 |
[V:4]z6 |
[V:1]e2 e2 e2 |
[V:2]_B2 B=c B2 |
[V:3]G2 GA G2 |
[V:4]=C2 C2 C2 |
[V:1]=f2 fe f2 |
[V:2]A2 A2 A2 |
[V:3]=F2 F2 F2 |
[V:4]=C2 CD C2 |
[V:1]c2 c2 c2 |
[V:2]G2 G2 G2 |
[V:3]E2 E2 E2 |
[V:4]A,,2 A,,2 A,,2 |
[V:1]c2 cd c2 |
[V:2]G2 G=F G2 |
[V:3]E2 ED E2 |
[V:4]A,,2 A,,_B,, A,,2 |
[V:1]d2 =F2 E2 |
[V:2]=F2 D2 C2 |
[V:3]D2 =F,2 G,2 |
[V:4]^G,,2 A,,2 A,,2 |
[V:1]D2 z4 |]
[V:2]D2 z4 |]
[V:3]=F,2 z4 |]
[V:4]D,2 A,,2 D,,2 |]

